X:1
T:Je suis amoureux
T:Je suis amoureux
T:Jean Guyot (Castileti)
C:Jean Guyot (Castileti)
%%score [ 1 [ 2 3 ] 4 ]
L:1/8
Q:1/4=80
M:2/2
K:C
V:1 treble nm="Superius" snm="S"
V:2 treble-8 nm="Tenor 1" snm="T 1"
V:3 treble-8 nm="Tenor 2" snm="T 2"
V:4 bass nm="Bassus" snm="B"
V:1
 z8 | G2 FG ABcA | B2 A4 z2 | G2 FG ABcA | B2 AA c3 B | A2 G2 A3 A | A2 G2 FFGG | F2 A2 c3 B | %8
w: |Je suis a- mou- reux d'u- ne|fil- le,|je suis a- mou- reux d'u- ne|fil- le, mais je ne|l'o- se dir' va|t'en ga- ri- la tur- lu-|ra, mais je ne|
 A2 G2 A3 A | A2 G2 F2 G2 |"^#" G2 F2 G4 | z2 c2 c2 B2 | A2 A2 A3 A | AAAA cdcA | B2 z B B2 B2 | %15
w: l'o- se dir' va|t'en ga- ri- la|tur- lu- ra,|el- le'at les|yeux vert et ri-|ant, va t'en ga- ri- la tur- lu-|ra, et la co-|
 c3 B A2 c2 | A4 z2 B2 | B2 B2 c4- | c2 B3 A A2- | A2 G2 F2 A2 | B2 B2 c4- | c2 B3 A A2- | %22
w: leur res- plen- dis-|sant, et|la co- leur|_ res- * plen-|* dis- sant, et|la co- leur|_ res- * plen-|
 AG G4 F2 | G4 z2 A2 | cBAc B3 A | G3 F/E/ D2 F2 | E2 z2 G2 FG | ABcA B2 A2- | A2 z2 G2 FG | %29
w: * * dis- *|sant, va|t'en ga- ri- la tur- *|* * * * lu-|ra, de sa beaul-|tez mon cueur sous- pi- re,|_ de sa beaul-|
 ABcA B2 AA | c3 B A2 G2 | A3 A A2 G2 | FFGG F2 A2 | c3 B A2 G2 | A3 A A2 G2 | F2 G2 G2 F2 | G8 |] %37
w: tez mon cueur sous- pi- re, mais|je ne l'o- se|dir' va t'en ga-|ri- la tur- lu- ra, mais|je ne l'o- se|dir' va t'en ga-|ri- la tur- lu-|ra.|
V:2
 z8 | z2 d2 cdef | ge f2 e4 | z2 d2 cdef | ge f2 e4 | z2 d2 f3 e | c2 e2 d2 B2 | z dff edee | %8
w: |Je suis a- mou- reux|d'u- ne fil- le,|je suis a- mou- reux|d'u- ne fil- le,|mais je ne|l'o- se di- re,|va t'en ga- ri- la tur- lu-|
 f2 d2 f3 e | c2 e2 d2 B2 | z2 d2 d2 c2 | B2 A2 GA Bc | d2 d2 f2 e2 | fdff edef | g2 z g g2 g2 | %15
w: ra, mais je ne|l'o- se di- re,|el- le'at les|yeux vert et _ _ _|_ et ri- *|ant, va t'en ga- ri- la tur- lu-|ra, et la co-|
 e3 d c2 c2 | d4 z2 g2 | g2 g2 a4- | a2 g2 f4 | e2 dc d2 f2 | g2 g2 a4 | g3 f e2 f2 | d2 c2 d4 | %23
w: leur res- plen- dis-|sant, et|la co- leur|_ res- plen-|dis- * * sant, et|la co- leur|res- * * plen-|* dis- sant,|
 z ded f2 f2 | e2 f2 g2 z d | dcBA B2 A2 | c4 z2 d2 | cdef ge f2 | e4 z2 d2 | cdef ge f2 | %30
w: va t'en ga- ri- la|tur- lu- ra, va|t'en ga- ri- la tur- lu-|ra, de|sa beaul- tez mon cueur sous- pi-|re, de|sa beaul- tez mon cueur sous- pi-|
 e4 z2 d2 | f3 e c2 e2 | d2 B2 z dff | edee f2 d2 | f3 e c2 e2 | d2 B2 d4 | d8 |] %37
w: re, mais|je ne l'o- se|di- re, va t'en ga-|ri- la tur- lu- ra, mais|je ne l'o- se|di- * *|re.|
V:3
 G2 FG ABcA | B2 A4 z2 | G2 FG ABcA | B2 A4 G2 | G2 d2 cBcc | d4 z2 A2 | c3 B A2 G2 | Addd cBcc | %8
w: Je suis a- mou- reux d'u- ne|fil- le,|je suis a- mou- reux d'u- ne|fil- le, va|t'en ga- ri- la tur- lu-|ra, mais|je ne l'o- se|dir', va- t'en ga- ri- la tur- lu-|
 d4 z2 A2 | c3 B A2 G2 | A4 G4 | z2 c2 e2 d2 | f3 e d2 c2 | dddd cBcc | d8 | z2 e2 e2 e2 | %16
w: ra, mais|je ne l'o- se|di- re,|el- le'at les|yeux ver et ri-|ant, va t'en ga- ri- la tur- lu-|ra,|et la co-|
 f3 e d2 d2 | d2 d2 f4 | e3 d c2 d2 | B2 AG A2 z d | d2 d2 f4 | e3 d c2 d2 | B2 AG A2 A2 | %23
w: leur res- plen- dis-|sant, co- leur|res- * * plen-|dis- * * sant, et|la co- leur|res- * * plen-|* * * * dis-|
 GdcB A2 d2 | d2 c2 d4 | z4 G2 FG | ABcA B2 A2- | A2 z2 G2 FG | ABcA B2 A2- | A2 G2 G2 d2 | %30
w: sant, va t'en ga- ri- la|tur- lu- ra,|de sa beaul-|tez mon cueur sous- pi- re,|_ de sa beaul-|té mon cueur sous- pi- re,|_ va t'en ga-|
 cBcc d4 | z2 A2 c3 B | A2 G2 Addd | cBcc d4 | z2 A2 c3 B | A2 G2 A4 | G8 |] %37
w: ri- la tur- lu- ra,|mais je ne|l'o- se dir', va t'en ga-|ri- la tur- lu- ra,|mais je le|l'o- se di-|re.|
V:4
 z2 D,2 C,D,E,F, | G,2 D,2 F,2 C,2 | z2 D,2 C,D,E,F, | G,2 D,2 F,2 C,2 | z2 D,2 A,3 G, | %5
w: Je suis a- mou- reux|d'u- ne fil- le,|je suis a- mou- reux|d'u- ne fil- le,|mais je ne|
 F,2 G,2 D,D,F,F, | F,2 C,2 D,2 E,2 | D,2 D,2 A,3 G, | F,2 G,2 D,D,F,F, | F,2 C,2 D,2 E,2 | %10
w: l'o- se dir', va t'en ga-|ri- la tur- lu-|ra, mais je ne-|l'o- se dir', va t'en ga-|ri- la tur- lu-|
 D,4 G,2 C,2 | G,2 F,2 G,3 F, | D,2 D,2 D,2 A,2 | D,D,D,D, A,B,A,A, | G,8 | z2 A,2 A,2 A,2 | %16
w: ra, tur- lu-|ra, el- le'at les|yeux vert et ri-|ant, va- t'en ga- ri- la tur- lu-|ra,|et la co-|
 D3 C B,A, G,2- | G,2 G,2 F,3 G, |"^#" A,2 E,2 F,2 D,2 | E,4 D,3 D, | G,2 G,2 F,G, A,B, | %21
w: leur res- plen- dis- sant,|_ co- leur res|plen- * * *|dis- sant, et|la co- leur _ _ _|
 C2 G,2 A,2 D,2 | G,2 E,2 D,2 D,2 | G,2 z G, F,E,D,D, | A,2 A,2 G,4- | G,4 z2 D,2 | %26
w: _ res- * *|* * plen- dis-|sant, va t'en ga- ri- la|tur- lu- ra,|_ de|
 C,D,E,F, G,2 D,2 | F,2 C,2 z2 D,2 | C,D,E,F, G,2 D,2 | F,2 C,2 z2 D,2 | A,3 G, F,2 G,2 | %31
w: sa beaul- tez mon cueur sous-|pi- re, de|sa beaul- tez mon cueur sous-|pi- re, mais|je ne l'o- se|
 D,D,F,F, F,2 C,2 |"^#" D,2 E,2 D,2 D,2 | A,3 G, F,2 G,2 | D,D,F,F, F,2 C,2 | D,2 E,2 D,4 | G,8 |] %37
w: dir', va t'en ga- ri- la|tur- lu- ra, mais|je ne l'o- se|dir', va t'en ga- ri- la|tur- * lu-|ra.|

